; generated by Slic3r 0.9.7 on 2013-11-12 at 19:31:34

; layer_height = 0.4
; perimeters = 3
; top_solid_layers = 3
; bottom_solid_layers = 3
; fill_density = 0.4
; perimeter_speed = 30
; infill_speed = 60
; travel_speed = 130
; scale = 1
; nozzle_diameter = 0.5
; filament_diameter = 3
; extrusion_multiplier = 1
; perimeters extrusion width = 0.53mm
; infill extrusion width = 0.53mm
; first layer extrusion width = 0.80mm

M104 S200 ; set temperature
G28 ; home all axes
M109 S200 ; wait for temperature to be reached
G90 ; use absolute coordinates
G21 ; set units to millimeters
G92 E0
M82 ; use absolute distances for extrusion
G1 F1800.000 E-1.00000
G92 E0
G1 Z0.400 F7800.000
G1 X81.680 Y80.172
G1 F1800.000 E1.00000
G1 X81.890 Y79.962 F540.000 E1.01236
G1 X82.340 Y79.572 E1.03715
G1 X84.900 Y77.732 E1.16839
G1 X86.590 Y76.572 E1.25372
G1 X87.270 Y76.222 E1.28555
G1 X90.820 Y74.632 E1.44748
G1 X91.340 Y74.422 E1.47082
G1 X91.880 Y74.262 E1.49427
G1 X96.550 Y73.252 E1.69316
G1 X97.130 Y73.152 E1.71766
G1 X98.020 Y73.092 E1.75479
G1 X102.330 Y73.122 E1.93421
G1 X103.140 Y73.182 E1.96802
G1 X103.670 Y73.272 E1.99040
G1 X107.680 Y74.122 E2.16104
G1 X107.940 Y74.192 E2.17225
G1 X108.460 Y74.372 E2.19515
G1 X113.180 Y76.432 E2.40953
G1 X113.700 Y76.722 E2.43432
G1 X113.960 Y76.882 E2.44703
G1 X117.850 Y79.752 E2.64826
G1 X118.520 Y80.372 E2.68626
G1 X121.740 Y84.092 E2.89107
G1 X122.200 Y84.682 E2.92221
G1 X124.220 Y88.142 E3.08899
G1 X124.580 Y88.842 E3.12176
G1 X124.770 Y89.342 E3.14402
G1 X125.890 Y92.612 E3.28791
G1 X126.150 Y93.582 E3.32971
G1 X126.630 Y96.202 E3.44059
G1 X126.710 Y96.832 E3.46703
G1 X126.970 Y100.012 E3.59985
G1 X126.930 Y100.782 E3.63194
G1 X126.480 Y105.072 E3.81150
G1 X126.330 Y105.942 E3.84825
G1 X126.170 Y106.502 E3.87250
G1 X124.830 Y110.522 E4.04889
G1 X124.640 Y111.022 E4.07116
G1 X124.410 Y111.512 E4.09369
G1 X122.720 Y114.442 E4.23450
G1 X122.260 Y115.212 E4.27183
G1 X121.760 Y115.952 E4.30901
G1 X121.270 Y116.562 E4.34158
G1 X118.480 Y119.642 E4.51458
G1 X118.080 Y120.012 E4.53726
G1 X117.660 Y120.352 E4.55975
G1 X113.970 Y123.062 E4.75033
G1 X113.730 Y123.232 E4.76258
G1 X113.230 Y123.532 E4.78685
G1 X112.970 Y123.672 E4.79914
G1 X109.220 Y125.342 E4.97002
G1 X108.370 Y125.662 E5.00783
G1 X107.480 Y125.902 E5.04620
G1 X106.270 Y126.162 E5.09772
G1 X103.260 Y126.762 E5.22549
G1 X102.730 Y126.842 E5.24780
G1 X101.940 Y126.892 E5.28075
G1 X98.440 Y126.892 E5.42645
G1 X97.480 Y126.852 E5.46644
G1 X96.340 Y126.702 E5.51431
G1 X92.350 Y125.802 E5.68458
G1 X91.370 Y125.522 E5.72700
G1 X90.460 Y125.182 E5.76744
G1 X86.950 Y123.602 E5.92768
G1 X86.190 Y123.212 E5.96323
G1 X85.720 Y122.892 E5.98690
G1 X82.070 Y120.192 E6.17590
G1 X81.660 Y119.832 E6.19861
G1 X81.280 Y119.442 E6.22128
G1 X80.240 Y118.282 E6.28613
G1 X78.420 Y116.172 E6.40212
G1 X78.090 Y115.762 E6.42403
G1 X77.660 Y115.102 E6.45682
G1 X75.560 Y111.422 E6.63320
G1 X75.420 Y111.172 E6.64513
G1 X75.180 Y110.652 E6.66897
G1 X74.990 Y110.112 E6.69280
G1 X73.710 Y106.072 E6.86921
G1 X73.560 Y105.542 E6.89214
G1 X73.460 Y105.002 E6.91500
G1 X73.100 Y101.542 E7.05981
G1 X73.010 Y100.512 E7.10285
G1 X73.010 Y100.002 E7.12408
G1 X73.040 Y99.502 E7.14493
G1 X73.510 Y94.742 E7.34404
G1 X73.620 Y94.152 E7.36903
G1 X73.780 Y93.582 E7.39367
G1 X75.000 Y89.882 E7.55585
G1 X75.270 Y89.202 E7.58631
G1 X75.480 Y88.772 E7.60623
G1 X76.760 Y86.422 E7.71762
G1 X77.740 Y84.712 E7.79967
G1 X78.060 Y84.242 E7.82334
G1 X78.420 Y83.812 E7.84668
G1 X81.604 Y80.252 E8.04550
G1 X81.680 Y80.172 E8.05009
G1 F1800.000 E7.05009
G92 E0
G1 X111.127 Y116.774 F7800.000
G1 F1800.000 E1.00000
G1 X113.672 Y114.931 F540.000 E1.13079
G1 X116.289 Y112.046 E1.29297
G1 X116.324 Y111.860 E1.30083
G1 X115.970 Y111.610 E1.31886
G1 X116.324 Y111.860 F7800.000
G1 X116.490 Y111.770 F540.000 E1.32672
G1 X116.787 Y111.149 E1.35538
G1 X116.881 Y111.096 E1.35987
G1 X117.272 Y110.422 E1.39230
G1 X117.663 Y109.748 E1.42474
G1 X118.054 Y109.074 E1.45718
G1 X118.444 Y108.400 E1.48962
G1 X119.788 Y104.381 E1.66599
G1 X120.236 Y100.089 E1.84565
G1 X119.949 Y99.673 E1.86669
G1 X119.801 Y98.024 E1.93559
G1 X120.111 Y97.357 F7800.000
G1 F1800.000 E0.93559
G92 E0
G1 X88.769 Y83.260 F7800.000
G1 F1800.000 E1.00000
G1 X90.022 Y82.378 F540.000 E1.06378
G1 X93.578 Y80.786 E1.22596
G1 X97.973 Y79.833 E1.41317
G1 X102.284 Y79.867 E1.59264
G1 X106.020 Y80.654 E1.75158
G1 X110.210 Y82.491 E1.94204
G1 X113.625 Y84.999 E2.11840
G1 X116.642 Y88.496 E2.31067
G1 X118.405 Y91.525 E2.45657
G1 X119.523 Y94.797 E2.60048
G1 X120.003 Y97.422 E2.71156
G1 X119.968 Y97.817 E2.72810
G1 X119.801 Y98.024 E2.73916
G1 X119.658 Y97.886 E2.74746
G1 X119.457 Y97.178 F7800.000
G1 F1800.000 E1.74746
G92 E0
G1 X83.027 Y89.200 F7800.000
G1 F1800.000 E1.00000
G1 X83.459 Y88.298 F540.000 E1.04163
G1 X86.505 Y84.874 E1.23240
G1 X88.769 Y83.260 E1.34816
G1 X89.501 Y83.190 F7800.000
G1 F1800.000 E0.34816
G92 E0
G1 X82.682 Y89.649 F7800.000
G1 F1800.000 E1.00000
G1 X83.027 Y89.200 F540.000 E1.02355
G1 X83.707 Y88.920 F7800.000
G1 F1800.000 E0.02355
G92 E0
G1 X80.061 Y97.160 F7800.000
G1 F1800.000 E1.00000
G1 X80.190 Y95.699 F540.000 E1.06105
G1 X81.403 Y91.998 E1.22317
G1 X82.682 Y89.649 E1.33453
G1 X83.310 Y89.265 F7800.000
G1 F1800.000 E0.33453
G92 E0
G1 X79.742 Y100.170 F7800.000
G1 F1800.000 E1.00000
G1 X80.061 Y97.160 F540.000 E1.12603
G1 X80.494 Y96.565 F7800.000
G1 F1800.000 E0.12603
G92 E0
G1 X79.742 Y100.170 F7800.000
G1 F1800.000 E1.00000
G1 X79.818 Y100.946 F540.000 E1.03244
G1 X80.137 Y104.046 E1.16218
G1 X81.413 Y108.088 E1.33859
G1 X83.510 Y111.770 E1.51500
G1 X83.676 Y111.860 E1.52285
G1 X84.019 Y111.603 E1.54069
G1 X83.676 Y111.860 F7800.000
G1 X85.269 Y113.789 F540.000 E1.64481
G1 X86.309 Y114.949 E1.70968
G1 X88.774 Y116.777 E1.83743
G1 X89.716 Y117.468 E1.88608
G1 X93.228 Y119.042 E2.04627
G1 X93.715 Y119.143 E2.06697
G1 X93.855 Y118.806 E2.08212
G1 X93.715 Y119.143 F7800.000
G1 X94.207 Y119.331 F540.000 E2.10406
G1 X97.803 Y120.132 E2.25742
G1 X98.442 Y120.154 E2.28402
G1 X98.860 Y120.131 E2.30145
G1 X101.948 Y120.157 E2.43002
G1 X104.954 Y119.560 E2.55760
G1 X106.098 Y119.320 E2.60626
G1 X106.235 Y119.190 E2.61411
G1 X106.095 Y118.779 E2.63217
G1 X106.235 Y119.190 F7800.000
G1 X106.422 Y119.214 F540.000 E2.64003
G1 X106.676 Y119.045 E2.65272
G1 X106.779 Y119.057 E2.65705
G1 X107.135 Y118.900 E2.67326
G1 X108.074 Y118.417 E2.71723
G1 X109.474 Y117.790 E2.78105
G1 X109.986 Y117.639 E2.80327
G1 X111.127 Y116.774 E2.86287
G1 X111.856 Y116.682 F7800.000
G1 F1800.000 E1.86287
G92 E0
G1 X119.855 Y99.889 F7800.000
G1 F1800.000 E1.00000
G1 X119.971 Y99.731 F540.000 E1.00816
G1 X120.643 Y99.432 F7800.000
G1 F1800.000 E0.00816
G92 E0
G1 X116.022 Y88.397 F7800.000
G1 F1800.000 E1.00000
G1 X116.082 Y88.355 F540.000 E1.00303
G1 X116.149 Y88.340 E1.00591
G1 X116.346 Y88.203 E1.01590
G1 X117.079 Y88.141 F7800.000
G1 F1800.000 E0.01590
G92 E0
G1 X106.136 Y81.116 F7800.000
G1 F1800.000 E1.00000
G1 X106.103 Y81.216 F540.000 E1.00437
G1 X106.136 Y81.116 F7800.000
G1 X106.236 Y80.809 F540.000 E1.01784
G1 X106.782 Y80.316 F7800.000
G1 F1800.000 E0.01784
G92 E0
G1 X93.765 Y80.810 F7800.000
G1 F1800.000 E1.00000
G1 X93.891 Y81.202 F540.000 E1.01714
G1 X93.737 Y81.921 F7800.000
G1 F1800.000 E0.01714
G92 E0
G1 X83.935 Y88.328 F7800.000
G1 F1800.000 E1.00000
G1 X84.017 Y88.388 F540.000 E1.00425
G1 X83.675 Y88.139 F7800.000
G1 X83.935 Y88.328 F540.000 E1.01762
G1 X84.234 Y89.000 F7800.000
G1 F1800.000 E0.01762
G92 E0
G1 X79.823 Y100.000 F7800.000
G1 F1800.000 E1.00000
G1 X80.250 Y100.000 F540.000 E1.01778
G1 F1800.000 E0.01778
G92 E0
G1 Z0.800 F7800.000
G1 X100.000 Y120.155
G1 F1800.000 E1.00000
G1 X102.217 Y120.129 F1800.000 E1.06518
G1 X105.916 Y119.344 E1.17638
G1 X106.235 Y119.190 E1.18681
G1 X106.079 Y118.771 E1.19997
G1 X106.235 Y119.190 F7800.000
G1 X106.625 Y119.082 F1800.000 E1.21186
G1 X107.045 Y118.922 E1.22508
G1 X107.099 Y118.869 E1.22731
G1 X107.737 Y118.617 E1.24747
G1 X109.349 Y117.899 E1.29936
G1 X110.212 Y117.487 E1.32749
G1 X113.477 Y115.118 E1.44610
G1 X116.160 Y112.165 E1.56343
G1 X116.324 Y111.860 E1.57360
G1 X115.954 Y111.612 E1.58670
G1 X116.324 Y111.860 F7800.000
G1 X116.419 Y111.808 F1800.000 E1.58988
G1 X116.568 Y111.603 E1.59734
G1 X116.699 Y111.338 E1.60602
G1 X118.544 Y108.146 E1.71445
G1 X119.789 Y104.309 E1.83306
G1 X120.225 Y100.128 E1.95668
G1 X120.161 Y100.000 E1.96089
G1 X119.750 Y100.000 E1.97296
G1 X120.178 Y99.375 F7800.000
G1 X120.161 Y100.000 F1800.000 E1.99135
G1 X120.129 Y98.909 F7800.000
G1 X120.178 Y99.375 F1800.000 E2.00513
G1 X120.129 Y98.909 F7800.000
G1 X120.095 Y98.648 F1800.000 E2.01286
G1 X119.886 Y98.384 E2.02276
G1 X119.811 Y97.870 F7800.000
G1 F1800.000 E1.02276
G92 E0
G1 X119.485 Y95.708 F7800.000
G1 F1800.000 E1.00000
G1 X119.886 Y98.384 F1800.000 E1.07958
G1 X119.769 Y98.563 E1.08587
G1 X119.306 Y98.798 F7800.000
G1 F1800.000 E0.08587
G92 E0
G1 X119.011 Y94.091 F7800.000
G1 F1800.000 E1.00000
G1 X119.485 Y95.708 F1800.000 E1.04954
G1 X119.362 Y96.213 F7800.000
G1 F1800.000 E0.04954
G92 E0
G1 X118.776 Y93.340 F7800.000
G1 F1800.000 E1.00000
G1 X119.011 Y94.091 F1800.000 E1.02313
G1 X118.720 Y93.126 F7800.000
G1 X118.776 Y93.340 F1800.000 E1.02964
G1 X118.717 Y93.122 F7800.000
G1 X118.720 Y93.126 F1800.000 E1.02977
G1 X118.731 Y93.646 F7800.000
G1 F1800.000 E0.02977
G92 E0
G1 X107.501 Y81.296 F7800.000
G1 F1800.000 E1.00000
G1 X109.985 Y82.402 F1800.000 E1.07996
G1 X113.626 Y85.017 E1.21178
G1 X116.567 Y88.397 E1.34352
G1 X118.426 Y91.631 E1.45321
G1 X118.803 Y92.832 E1.49023
G1 X118.717 Y93.122 E1.49913
G1 X118.587 Y93.074 E1.50321
G1 X118.256 Y92.674 F7800.000
G1 F1800.000 E0.50321
G92 E0
G1 X104.431 Y80.351 F7800.000
G1 F1800.000 E1.00000
G1 X106.335 Y80.820 F1800.000 E1.05766
G1 X107.501 Y81.296 E1.09469
G1 X107.819 Y81.707 F7800.000
G1 F1800.000 E0.09469
G92 E0
G1 X79.831 Y99.149 F7800.000
G1 F1800.000 E1.00000
G1 X80.232 Y95.695 F1800.000 E1.10225
G1 X81.451 Y91.907 E1.21925
G1 X83.549 Y88.235 E1.34359
G1 X86.538 Y84.897 E1.47536
G1 X89.962 Y82.413 E1.59976
G1 X94.084 Y80.656 E1.73151
G1 X97.986 Y79.874 E1.84855
G1 X102.216 Y79.872 E1.97293
G1 X104.431 Y80.351 E2.03956
G1 X104.816 Y80.700 F7800.000
G1 F1800.000 E1.03956
G92 E0
G1 X79.801 Y99.602 F7800.000
G1 F1800.000 E1.00000
G1 X79.831 Y99.149 F1800.000 E1.01337
G1 X79.776 Y99.649 F7800.000
G1 X79.801 Y99.602 F1800.000 E1.01493
G1 X79.776 Y99.902 F7800.000
G1 X79.776 Y99.649 F1800.000 E1.02238
G1 X79.776 Y99.902 F7800.000
G1 X79.823 Y100.000 F1800.000 E1.02555
G1 X80.145 Y100.000 E1.03503
G1 X80.250 Y100.000 E1.03811
G1 X79.776 Y100.098 F7800.000
G1 X79.823 Y100.000 F1800.000 E1.04129
G1 X79.776 Y100.098 F7800.000
G1 X79.776 Y100.351 F1800.000 E1.04874
G1 X79.804 Y100.602 E1.05616
G1 X79.940 Y101.855 E1.09322
G1 X80.166 Y104.112 E1.15994
G1 X81.455 Y108.146 E1.28446
G1 X83.581 Y111.808 E1.40898
G1 X83.676 Y111.860 E1.41216
G1 X84.014 Y111.591 E1.42487
G1 X83.676 Y111.860 F7800.000
G1 X83.696 Y111.966 F1800.000 E1.42805
G1 X84.350 Y112.734 E1.45772
G1 X86.035 Y114.610 E1.53185
G1 X86.533 Y115.105 E1.55250
G1 X90.192 Y117.690 E1.68425
G1 X93.658 Y119.204 E1.79545
G1 X93.765 Y119.190 E1.79863
G1 X93.884 Y118.788 E1.81095
G1 X93.765 Y119.190 F7800.000
G1 X94.085 Y119.342 F1800.000 E1.82136
G1 X98.040 Y120.127 E1.93994
G1 X98.740 Y120.153 E1.96052
G1 X100.000 Y120.155 E1.99759
G1 X100.450 Y120.416 F7800.000
G1 F1800.000 E0.99759
G92 E0
G1 X83.931 Y88.325 F7800.000
G1 F1800.000 E1.00000
G1 X84.008 Y88.382 F1800.000 E1.00284
G1 X83.701 Y88.158 F7800.000
G1 X83.931 Y88.325 F1800.000 E1.01117
G1 X84.142 Y88.800 F7800.000
G1 F1800.000 E0.01117
G92 E0
G1 X93.889 Y81.108 F7800.000
G1 F1800.000 E1.00000
G1 X93.896 Y81.124 F1800.000 E1.00050
G1 X93.889 Y81.108 F7800.000
G1 X93.841 Y80.820 F1800.000 E1.00911
G1 X94.023 Y80.333 F7800.000
G1 F1800.000 E0.00911
G92 E0
G1 X106.090 Y81.212 F7800.000
G1 F1800.000 E1.00000
G1 X106.159 Y80.852 F1800.000 E1.01080
G1 X106.500 Y80.459 F7800.000
G1 F1800.000 E0.01080
G92 E0
G1 X116.005 Y88.351 F7800.000
G1 F1800.000 E1.00000
G1 X116.324 Y88.140 F1800.000 E1.01125
G1 F1800.000 E0.01125
G92 E0
G1 Z1.200 F7800.000
G1 X116.841 Y89.529
G1 F1800.000 E1.00000
G1 X117.112 Y89.388 F1800.000 E1.00897
G1 X118.487 Y91.769 E1.08983
G1 X119.304 Y94.287 E1.16767
G1 X119.097 Y94.368 E1.17421
G1 X116.874 Y89.599 E1.32893
G1 X116.841 Y89.529 E1.33122
G1 F1800.000 E0.33122
G92 E0
G1 X92.531 Y81.283 F7800.000
G1 F1800.000 E1.00000
G1 X93.468 Y80.851 F1800.000 E1.03033
G1 X93.893 Y80.838 E1.04285
G1 X94.095 Y80.669 E1.05058
G1 X97.983 Y79.850 E1.16743
G1 X102.017 Y79.875 E1.28604
G1 X105.971 Y80.669 E1.40464
G1 X110.054 Y82.422 E1.53532
G1 X113.472 Y84.888 E1.65924
G1 X116.304 Y88.034 E1.78369
G1 X116.300 Y88.497 E1.79732
G1 X115.967 Y88.444 E1.80724
G1 X116.300 Y88.497 F7800.000
G1 X116.508 Y88.837 F1800.000 E1.81895
G1 X116.818 Y88.935 E1.82851
G1 X116.456 Y89.114 F7800.000
G1 X116.508 Y88.837 F1800.000 E1.83681
G1 X116.366 Y89.287 F7800.000
G1 X116.456 Y89.114 F1800.000 E1.84253
G1 X116.366 Y89.287 F7800.000
G1 X116.453 Y89.545 F1800.000 E1.85054
G1 X116.585 Y89.753 E1.85780
G1 X116.606 Y90.273 F7800.000
G1 F1800.000 E0.85780
G92 E0
G1 X120.120 Y98.881 F7800.000
G1 F1800.000 E1.00000
G1 X119.830 Y95.890 F1800.000 E1.08834
G1 X119.475 Y94.773 E1.12281
G1 X119.586 Y94.266 F7800.000
G1 F1800.000 E0.12281
G92 E0
G1 X120.144 Y100.070 F7800.000
G1 F1800.000 E1.00000
G1 X120.230 Y99.705 F1800.000 E1.01103
G1 X120.120 Y98.881 E1.03549
G1 X120.137 Y100.078 F7800.000
G1 X120.144 Y100.070 F1800.000 E1.03578
G1 X120.177 Y100.642 F7800.000
G1 X120.137 Y100.078 F1800.000 E1.05242
G1 X119.790 Y100.037 E1.06271
G1 X120.092 Y101.358 F7800.000
G1 X120.177 Y100.642 F1800.000 E1.08390
G1 X120.064 Y101.614 F7800.000
G1 X120.092 Y101.358 F1800.000 E1.09149
G1 X120.036 Y101.871 F7800.000
G1 X120.064 Y101.614 F1800.000 E1.09907
G1 X120.036 Y101.871 F7800.000
G1 X119.788 Y104.289 F1800.000 E1.17056
G1 X118.468 Y108.312 E1.29506
G1 X116.571 Y111.596 E1.40659
G1 X116.248 Y111.901 E1.41964
G1 X115.743 Y112.022 F7800.000
G1 F1800.000 E0.41964
G92 E0
G1 X106.590 Y119.122 F7800.000
G1 F1800.000 E1.00000
G1 X110.054 Y117.578 F1800.000 E1.11153
G1 X113.274 Y115.268 E1.22805
G1 X116.155 Y112.171 E1.35241
G1 X116.248 Y111.901 E1.36082
G1 X115.947 Y111.667 E1.37203
G1 X115.751 Y111.186 F7800.000
G1 F1800.000 E0.37203
G92 E0
G1 X106.235 Y119.190 F7800.000
G1 F1800.000 E1.00000
G1 X106.590 Y119.122 F1800.000 E1.01063
G1 X107.081 Y119.292 F7800.000
G1 F1800.000 E0.01063
G92 E0
G1 X98.487 Y120.137 F7800.000
G1 F1800.000 E1.00000
G1 X102.219 Y120.128 F1800.000 E1.10973
G1 X105.971 Y119.331 E1.22252
G1 X106.235 Y119.190 E1.23133
G1 X106.063 Y118.762 E1.24490
G1 X106.136 Y118.247 F7800.000
G1 F1800.000 E0.24490
G92 E0
G1 X96.073 Y119.747 F7800.000
G1 F1800.000 E1.00000
G1 X97.593 Y120.085 F1800.000 E1.04578
G1 X98.487 Y120.137 E1.07213
G1 X98.922 Y120.422 F7800.000
G1 F1800.000 E0.07213
G92 E0
G1 X95.100 Y119.549 F7800.000
G1 F1800.000 E1.00000
G1 X96.073 Y119.747 F1800.000 E1.02921
G1 X94.596 Y119.447 F7800.000
G1 X95.100 Y119.549 F1800.000 E1.04433
G1 X94.344 Y119.395 F7800.000
G1 X94.596 Y119.447 F1800.000 E1.05189
G1 X94.137 Y119.335 F7800.000
G1 X94.344 Y119.395 F1800.000 E1.05824
G1 X94.092 Y119.343 F7800.000
G1 X94.137 Y119.335 F1800.000 E1.05958
G1 X93.765 Y119.190 F7800.000
G1 X94.092 Y119.343 F1800.000 E1.07020
G1 X92.603 Y118.740 F7800.000
G1 X93.680 Y119.201 F1800.000 E1.10464
G1 X93.875 Y118.791 E1.11800
G1 X94.303 Y118.496 F7800.000
G1 F1800.000 E0.11800
G92 E0
G1 X84.711 Y113.132 F7800.000
G1 F1800.000 E1.00000
G1 X86.393 Y114.991 F1800.000 E1.07372
G1 X89.788 Y117.487 E1.19762
G1 X92.603 Y118.740 E1.28823
G1 X92.908 Y119.160 F7800.000
G1 F1800.000 E0.28823
G92 E0
G1 X83.676 Y111.860 F7800.000
G1 F1800.000 E1.00000
G1 X84.711 Y113.132 F1800.000 E1.04822
G1 X84.794 Y113.645 F7800.000
G1 F1800.000 E0.04822
G92 E0
G1 X81.797 Y108.777 F7800.000
G1 F1800.000 E1.00000
G1 X83.460 Y111.653 F1800.000 E1.09767
G1 X83.676 Y111.860 E1.10648
G1 X84.009 Y111.578 E1.11932
G1 X84.521 Y111.485 F7800.000
G1 F1800.000 E0.11932
G92 E0
